_site/images/icons/usd-circle.svg

<svg height="24" viewBox="0 0 24 24" width="24" xmlns="http://www.w3.org/2000/svg"><path d="m10.9090909 8.72727273h4.3636364c.6024924 0 1.0909091-.48841664 1.0909091-1.09090909 0-.60249246-.4884167-1.09090909-1.0909091-1.09090909h-2.1818182v-1.0909091c0-.60249245-.4884166-1.09090909-1.0909091-1.09090909s-1.0909091.48841664-1.0909091 1.09090909v1.0909091c-1.80747735 0-3.27272726 1.46524991-3.27272726 3.27272727 0 1.80747738 1.46524991 3.27272728 3.27272726 3.27272728h2.1818182c.6024924 0 1.0909091.4884166 1.0909091 1.0909091 0 .6024924-.4884167 1.0909091-1.0909091 1.0909091h-4.36363637c-.60249246 0-1.09090909.4884166-1.09090909 1.0909091 0 .6024924.48841663 1.0909091 1.09090909 1.0909091h2.18181817v1.090909c0 .6024925.4884166 1.0909091 1.0909091 1.0909091s1.0909091-.4884166 1.0909091-1.0909091v-1.090909c1.8074773-.0000001 3.2727272-1.46525 3.2727272-3.2727273 0-1.8074774-1.4652499-3.2727273-3.2727272-3.2727273h-2.1818182c-.6024924 0-1.09090908-.4884166-1.09090908-1.09090908 0-.60249246.48841668-1.09090909 1.09090908-1.09090909zm1.0909091-8.72727273c-6.627417 0-12 5.372583-12 12s5.372583 12 12 12 12-5.372583 12-12c0-3.18259788-1.2642821-6.23484483-3.5147186-8.48528137-2.2504366-2.25043655-5.3026835-3.51471863-8.4852814-3.51471863zm0 21.8181818c-5.42243209 0-9.81818182-4.3957497-9.81818182-9.8181818 0-5.42243209 4.39574973-9.81818182 9.81818182-9.81818182 5.4224321 0 9.8181818 4.39574973 9.8181818 9.81818182 0 5.4224321-4.3957497 9.8181818-9.8181818 9.8181818z" fill="#0b7a76"/></svg>

<?xml version="1.0" encoding="UTF-8"?>
<svg width="24px" height="24px" viewBox="0 0 24 24" version="1.1" xmlns="http://www.w3.org/2000/svg" xmlns:xlink="http://www.w3.org/1999/xlink">
    <!-- Generator: Sketch 52.6 (67491) - http://www.bohemiancoding.com/sketch -->
    <title>usd-circle</title>
    <desc>Created with Sketch.</desc>
    <g id="Landing-page" stroke="none" stroke-width="1" fill="none" fill-rule="evenodd">
        <g id="1.1--Home" transform="translate(-163.000000, -2304.000000)" fill="#0B7A76" fill-rule="nonzero">
            <g id="Group-4" transform="translate(163.000000, 1943.000000)">
                <g id="Group-30" transform="translate(0.000000, 162.000000)">
                    <g id="Group-14" transform="translate(0.000000, 194.000000)">
                        <g id="usd-circle" transform="translate(0.000000, 5.000000)">
                            <path d="M10.9090909,8.72727273 L15.2727273,8.72727273 C15.8752197,8.72727273 16.3636364,8.23885609 16.3636364,7.63636364 C16.3636364,7.03387118 15.8752197,6.54545455 15.2727273,6.54545455 L13.0909091,6.54545455 L13.0909091,5.45454545 C13.0909091,4.852053 12.6024925,4.36363636 12,4.36363636 C11.3975075,4.36363636 10.9090909,4.852053 10.9090909,5.45454545 L10.9090909,6.54545455 C9.10161355,6.54545455 7.63636364,8.01070446 7.63636364,9.81818182 C7.63636364,11.6256592 9.10161355,13.0909091 10.9090909,13.0909091 L13.0909091,13.0909091 C13.6934015,13.0909091 14.1818182,13.5793257 14.1818182,14.1818182 C14.1818182,14.7843106 13.6934015,15.2727273 13.0909091,15.2727273 L8.72727273,15.2727273 C8.12478027,15.2727273 7.63636364,15.7611439 7.63636364,16.3636364 C7.63636364,16.9661288 8.12478027,17.4545455 8.72727273,17.4545455 L10.9090909,17.4545455 L10.9090909,18.5454545 C10.9090909,19.147947 11.3975075,19.6363636 12,19.6363636 C12.6024925,19.6363636 13.0909091,19.147947 13.0909091,18.5454545 L13.0909091,17.4545455 C14.8983864,17.4545454 16.3636363,15.9892955 16.3636363,14.1818182 C16.3636363,12.3743408 14.8983864,10.9090909 13.0909091,10.9090909 L10.9090909,10.9090909 C10.3065985,10.9090909 9.81818182,10.4206743 9.81818182,9.81818182 C9.81818182,9.21568936 10.3065985,8.72727273 10.9090909,8.72727273 Z M12,8.07434927e-17 C5.372583,-1.25152414e-15 -4.03717464e-17,5.372583 -8.8817842e-16,12 C-1.73598509e-15,18.627417 5.372583,24 12,24 C18.627417,24 24,18.627417 24,12 C24,8.81740212 22.7357179,5.76515517 20.4852814,3.51471863 C18.2348448,1.26428208 15.1825979,-7.67063181e-16 12,8.07434927e-17 Z M12,21.8181818 C6.57756791,21.8181818 2.18181818,17.4224321 2.18181818,12 C2.18181818,6.57756791 6.57756791,2.18181818 12,2.18181818 C17.4224321,2.18181818 21.8181818,6.57756791 21.8181818,12 C21.8181818,17.4224321 17.4224321,21.8181818 12,21.8181818 Z" id="Shape"></path>
                        </g>
                    </g>
                </g>
            </g>
        </g>
    </g>
</svg>
